X:6505
T:The Banshee
O:england
C:Trad
R:Reel
M:C
K:G
L:1/8
|: G2 GD EDB,D | G2 GB d2 Bd | e2 ed BAGA | BAGE EDDE |
G2 GD EDB,D | G2 GB d2 Bd | e2 ed BAGA | BAGE EDD2 :|
|: eaag efge | dBBA B3 d | eBBB eBfB | eBBA B4 |
eaag efge | dBBA B3 d | e2 ed BAGA | BAGE EDDE :|


